logos/bugherd.svg

<?xml version="1.0" encoding="UTF-8"?>
<svg width="512px" height="171px" viewBox="0 0 512 171" version="1.1" xmlns="http://www.w3.org/2000/svg" preserveAspectRatio="xMidYMid">
    <title>BugHerd</title>
    <g>
        <path d="M31.4834922,58.3481452 C35.6680468,57.8383474 38.7550006,55.200125 38.969394,51.1326068 C39.4020646,42.9269588 39.4160468,34.6514754 38.7728668,26.4698818 C38.6043038,24.324386 35.7247522,21.3036214 33.5054702,20.6432898 C31.2575334,19.9738192 28.8746176,19.756027 26.4463626,19.6329397 L23.5164306,19.5078471 C22.536357,19.4660715 21.554766,19.4166025 20.5773946,19.3365936 L20.5773946,58.9720072 C24.3587966,58.7733646 27.948332,58.7795722 31.4834922,58.3481452 Z M20.598368,119.613104 L23.065697,119.478728 L23.065697,119.478728 L27.910852,119.264897 C30.3051054,119.142879 32.6583834,118.964799 34.9774826,118.580317 C39.4478952,117.839287 42.579126,114.707562 42.8005102,110.15042 C43.1865736,102.199283 43.2417256,94.1969338 42.7803138,86.2543318 C42.5014472,81.4605264 39.3003054,78.13559 34.3809098,77.4674988 C32.1651232,77.166819 29.9273924,77.0265666 27.639656,76.9287972 L22.9891942,76.7549562 C22.2002334,76.7237746 21.4036378,76.6885768 20.598368,76.6449944 L20.598368,119.613104 Z M49.7395536,67.1823108 C60.6223958,72.6125874 64.1256024,81.7385242 63.925026,92.8240024 L63.8941766,93.9028496 C63.8361764,95.391807 63.8234794,96.8872787 63.8268978,98.3847515 L63.8563114,102.87866 C63.8724652,106.621065 63.8069176,110.34777 63.2036124,113.988258 C60.8895624,127.948335 49.6649822,137.069601 35.4287962,137.356702 C26.895008,137.528962 18.3534518,137.449816 9.81655645,137.372221 C3.97200678,137.319457 0.0430152548,133.487051 0.0352473808,127.655027 C-0.0136902354,88.8894506 -0.00825272482,50.1238744 0.0305866538,11.3582984 C0.0352473808,6.10280392 3.34746958,1.77999872 8.20083834,1.71559505 L15.0940874,1.61475377 C23.1459626,1.5081775 31.217313,1.51910783 39.1542694,2.474472 C51.9308714,4.01162458 59.6536932,13.563542 60.0521854,26.4691058 C60.2712394,33.5690282 60.277454,40.6867974 60.0552926,47.7867198 C59.818411,55.3528314 56.323747,61.3867024 50.6528808,66.3992662 L49.7395536,67.1823108 Z M264.560932,77.8795272 L241.762218,77.8795272 L241.773628,108.427109 C241.773218,115.166333 241.76719,121.883682 241.748236,128.600907 C241.724156,137.137885 233.186482,141.872718 225.789134,137.529738 C221.966564,135.285697 221.03908,131.710906 221.046703,127.598383 L221.067038,98.7058691 L221.067038,98.7058691 L221.061606,69.812774 C221.061606,50.163448 221.033642,30.5133458 221.077918,10.8640196 C221.093454,3.79513516 225.03332,-0.108658227 231.804578,0.00230230853 C237.737682,0.0992957849 241.725708,4.04033464 241.745906,10.0469466 L241.772704,31.7649496 L241.772704,31.7649496 L241.762218,57.9958648 L241.762218,57.9958648 L264.35586,57.9958648 L264.515246,55.0772668 C264.536938,54.5841088 264.551612,54.0889678 264.552388,53.5939132 L264.548476,24.8949376 C264.551698,20.1118518 264.56171,15.3288233 264.58579,10.545881 C264.619968,3.7749605 268.608772,-0.061325409 275.235548,0.00230230853 C281.251768,0.0597224458 285.220376,3.89756024 285.243678,9.91969113 L285.27337,24.1399116 L285.27337,24.1399116 L285.262322,52.5805252 L285.262322,52.5805252 L285.259992,127.817976 L285.259992,127.817976 C285.25766,135.09171 281.623072,138.974553 274.893762,138.945067 C268.26388,138.916357 264.58346,134.942729 264.570254,127.666666 L264.55569,105.172812 L264.55569,105.172812 L264.560932,77.8795272 Z M178.811698,133.018981 L173.922252,132.728949 L173.922252,132.728949 L173.912931,132.86474 L173.912931,132.86474 L171.200388,132.86474 L171.200388,132.86474 C166.174573,132.869396 164.030639,134.715376 162.313162,140.517137 C160.789105,145.666327 162.0475,150.219589 165.664223,152.644426 C171.007745,156.226976 182.189602,155.455685 186.77731,151.027351 C189.981558,147.933647 191.130427,144.147021 189.883683,139.729551 C188.64626,135.34079 185.382199,133.684141 181.248912,133.231764 L178.811698,133.018981 L178.811698,133.018981 Z M184.238768,72.1910542 L184.224009,72.1910542 L184.289065,66.7749384 C184.307125,64.9698898 184.29625,63.166781 184.180509,61.3704618 C183.82474,55.8651122 180.427848,52.7558892 175.217157,52.7914233 C170.076377,52.8288284 166.634431,56.0428042 166.464315,61.5737602 C166.246037,68.6542838 166.244484,75.7511026 166.465092,82.8308502 C166.637538,88.3408558 170.113663,91.5843174 175.231139,91.6201205 C180.535045,91.6557046 183.921062,88.3656858 184.20692,82.626 C184.293531,80.8909808 184.301493,79.1518876 184.287803,77.4117278 L184.238768,72.1910542 Z M199.15775,51.4577286 C203.135634,55.8424728 203.84372,60.9118122 203.731928,66.1896196 L203.701958,67.1815352 C203.64551,68.641524 203.624776,70.1074906 203.614592,71.5751686 L203.590522,75.9790714 C203.554896,79.6461592 203.427924,83.297281 202.81642,86.8657788 C200.629762,99.6301201 190.246443,107.786883 177.301278,107.903275 L173.494576,107.917706 L173.494576,107.917706 L166.308957,107.907931 L166.308957,107.907931 L166.261834,108.429577 L166.261834,108.429577 L165.976974,110.315685 C165.828596,111.440017 165.783762,112.620176 166.277885,113.497859 C167.1207,114.993886 169.736144,116.079438 171.672675,116.257905 C176.035891,116.660622 180.46125,116.378177 184.860974,116.396024 C201.801934,116.463531 212.24895,128.786359 209.598552,145.563126 C207.59444,158.248321 199.079294,166.826424 185.134404,169.721485 C176.289901,171.558153 167.358397,171.402964 158.607108,169.060377 C142.766856,164.820598 136.81744,147.642666 147.046179,135.762906 C147.911909,134.757665 148.91513,133.870369 149.992437,132.982684 L152.227046,131.171737 C152.609683,130.858139 152.995854,130.535733 153.383212,130.200136 C148.201262,126.567148 146.013828,121.491673 146.535053,115.239862 C147.044625,109.140912 150.314124,104.70637 155.42461,101.019067 C147.41593,93.1113826 146.398338,83.236671 146.940536,72.9095818 L147.031902,70.5884956 L147.031902,70.5884956 L147.127196,65.9326278 C147.193388,62.8295604 147.320274,59.7374244 147.840056,56.7116712 C149.804826,45.2762092 158.946026,37.6659392 170.429029,36.5023748 L171.479255,36.4144288 C180.609616,35.8091894 189.697254,34.551378 198.802758,33.5829952 C199.574108,33.5007448 200.343128,33.3835766 201.116032,33.3261566 C207.87952,32.8256702 210.697706,34.7570042 211.348654,40.3252056 C212.078058,46.5700334 209.448632,49.9624776 202.985758,51.0588916 C202.537708,51.134624 202.085804,51.1881334 201.604742,51.2352612 L199.15775,51.4577286 Z M452.998722,88.2376544 C452.998722,79.0620716 452.795204,69.8795056 453.099704,60.7140102 C453.21933,57.1229236 451.594292,55.5330064 448.712408,54.4303848 C442.030484,51.8744126 436.794932,55.4274776 436.76231,62.7493212 C436.686182,79.5493668 436.7157,96.3501887 436.774736,113.150235 C436.780176,114.796796 437.05749,116.521728 437.605122,118.069744 C438.818466,121.494777 442.411884,123.128147 446.551384,122.387893 C451.224538,121.551422 452.993284,119.639486 452.996392,115.376429 L452.998722,88.2376544 Z M453.271374,130.779769 C449.23441,136.205196 444.360844,139.535564 437.812524,139.7086 C425.533068,140.032946 416.99151,132.168715 416.874218,119.857528 C416.66992,98.3924831 416.719634,76.9235594 416.871108,55.4577396 C416.921602,48.2111634 419.437616,41.8507192 426.45822,38.5552688 C433.850132,35.0852302 441.268452,35.4856192 448.27197,39.8844674 C448.918812,40.2908424 449.523136,40.7646298 450.155262,41.2997826 L452.205364,43.0832906 C452.458046,43.3005696 452.721632,43.5239952 452.998722,43.7533432 L453.001052,10.6979668 L453.001052,10.6979668 C453.0096,3.57088626 456.24958,0.0403237538 462.785468,0.000569860336 C469.498468,-0.0380469778 472.90934,3.54683186 472.913224,10.8236703 C472.932644,48.5843942 472.922546,86.345118 472.922546,124.106618 L472.937162,127.469288 C472.93532,128.029637 472.927984,128.589785 472.910118,129.149502 C472.741554,134.415084 470.015808,138.055831 465.6992,138.845746 C460.235276,139.844391 456.212294,137.780369 454.01476,132.833703 L453.879058,132.507016 L453.879058,132.507016 L453.271374,130.779769 Z M113.129303,130.848828 C108.05222,139.347008 100.266478,140.950116 91.5330552,139.247687 C82.9114902,137.566984 77.239387,130.456198 77.1407352,120.565968 C76.8937166,95.7418454 76.9993598,70.913068 77.079369,46.0866182 C77.0956812,41.0747714 80.698422,37.6031808 85.6007286,37.2547802 C91.8064846,36.813266 95.7890744,39.5391706 96.7165587,44.9700292 C96.8942487,46.0111572 96.9351759,47.0810922 96.9448615,48.1484084 L96.9666841,108.953909 L96.9666841,108.953909 C96.9674609,110.630732 97.0272735,112.313763 97.1694257,113.984378 C97.6883199,120.100399 101.3299,122.658699 107.249798,121.093612 C110.576002,120.214463 112.427864,118.571006 112.396016,114.597377 C112.218908,92.3579374 112.291926,70.1161696 112.323775,47.8751776 C112.333096,41.0608042 115.749408,37.3440142 121.900012,37.2477968 C128.599028,37.1422678 132.221188,40.6596394 132.226626,47.4228 C132.247599,74.3187028 132.236724,101.214606 132.234393,128.110508 C132.234393,134.580361 130.161147,137.915385 125.589753,138.824795 C119.425943,140.051569 115.634443,137.704327 113.129303,130.848828 Z M336.698864,78.0804978 L336.714506,75.336934 L336.714506,75.336934 L336.786488,69.9778314 C336.828936,66.4533632 336.82881,63.0139192 336.597106,59.5904376 C336.30115,55.2210756 333.425482,53.0554054 329.402498,53.0729278 C325.623428,53.090323 322.427722,55.3079818 322.161284,59.2141032 C321.949222,62.3241018 321.92087,65.4465158 321.945532,68.5885224 L322.026822,74.9007858 C322.039242,75.9578926 322.047874,77.017708 322.047874,78.0804978 L336.698864,78.0804978 Z M321.842802,93.9408706 L321.830416,97.7099581 L321.830416,97.7099581 L321.782212,105.041386 C321.76726,108.652453 321.78299,112.195819 321.905722,115.735693 C322.075838,120.637355 325.0688,123.346964 329.459982,123.325238 C333.9335,123.303511 336.658472,120.661409 337.170374,115.827254 C337.238732,115.186321 337.236402,114.537629 337.255044,113.892817 C337.448464,107.347697 340.507454,104.250113 346.727968,104.305205 C352.870804,104.358746 356.002812,107.641005 356.07583,114.098443 C356.250608,129.563858 346.336468,139.691529 330.816252,139.669907 C327.101654,139.664371 323.273644,139.462624 319.694984,138.567181 C309.157862,135.93051 302.557498,128.360363 302.15279,116.265665 C301.535244,97.8213857 301.459896,79.3095992 302.311256,60.8792872 C303.182812,42.0206516 317.642712,34.1548688 335.253262,36.8970682 C348.376312,38.9401388 356.125544,48.3578172 356.578412,61.9842368 C356.737808,66.785181 356.75235,71.5922706 356.715494,76.3998074 L356.600938,86.0137882 L356.600938,86.0137882 C356.531804,91.2615232 353.63128,93.9160406 348.228722,93.9338872 L337.824988,93.9480778 L337.824988,93.9480778 L321.842802,93.9408706 Z M389.883178,47.0937982 C391.550164,39.6315084 395.912604,36.6014322 402.946416,37.2307258 C408.505108,37.7273324 411.243282,41.136071 411.10113,47.7533538 C410.970632,53.8305772 407.802892,57.5341762 402.509084,57.5543506 C401.35975,57.5585408 400.208178,57.4102106 399.05806,57.2310412 L396.760856,56.867637 L396.760856,56.867637 C392.407738,56.2344636 390.907762,57.489171 390.906984,61.8507734 C390.903878,84.2128134 390.930288,106.575629 390.892226,128.937668 C390.87902,136.647486 384.246808,141.102978 376.996274,138.381729 C372.764334,136.793364 370.989374,133.712851 370.986268,127.771419 C370.975392,101.401609 370.97617,75.032575 370.98549,48.662765 C370.987044,42.0346186 373.255264,38.7469278 378.219714,38.0741812 C384.895426,37.169426 387.785852,39.2621572 389.883178,47.0937982 Z" fill="#222222"></path>
        <path d="M511.999624,126.83097 C511.949906,134.070563 506.948948,138.966018 499.71162,138.860489 C492.785784,138.759616 488.013978,133.748545 488.03864,126.602842 C488.064466,119.358593 493.01804,114.537629 500.325282,114.645486 C507.320256,114.747911 512.048558,119.683715 511.999624,126.83097" fill="#86BAD3"></path>
    </g>
</svg>

<svg preserveAspectRatio="xMidYMid" viewBox="0 0 512 171" xmlns="http://www.w3.org/2000/svg">
  <path fill="#222" d="M31.483 58.348c4.185-.51 7.272-3.148 7.486-7.215.433-8.206.447-16.482-.196-24.663-.169-2.146-3.048-5.166-5.268-5.827-2.247-.67-4.63-.887-7.059-1.01l-2.93-.125a75.39 75.39 0 0 1-2.939-.171v39.635c3.782-.199 7.371-.192 10.906-.624Zm-10.885 61.265 2.468-.134 4.845-.214c2.394-.122 4.747-.3 7.066-.685 4.47-.74 7.602-3.872 7.824-8.43.386-7.95.44-15.953-.02-23.896-.28-4.793-3.48-8.118-8.4-8.787-2.216-.3-4.454-.44-6.741-.538l-4.65-.174c-.79-.031-1.586-.066-2.392-.11v42.968Zm29.142-52.43c10.882 5.43 14.386 14.556 14.185 25.641l-.03 1.079a106.106 106.106 0 0 0-.068 4.482l.03 4.494c.015 3.742-.05 7.469-.653 11.11-2.314 13.96-13.539 23.08-27.775 23.368-8.534.172-17.076.093-25.612.015-5.845-.053-9.774-3.885-9.782-9.717C-.014 88.889-.008 50.124.031 11.358.035 6.103 3.347 1.78 8.2 1.716l6.893-.101c8.052-.107 16.123-.096 24.06.86 12.777 1.537 20.5 11.089 20.898 23.994.22 7.1.225 14.218.003 21.318-.237 7.566-3.731 13.6-9.402 18.612l-.913.783ZM264.56 77.88h-22.798l.012 30.547c0 6.74-.007 13.457-.026 20.174-.024 8.537-8.562 13.272-15.959 8.929-3.822-2.244-4.75-5.82-4.742-9.932l.02-28.892-.005-28.893c0-19.65-.028-39.3.016-58.949.015-7.069 3.955-10.973 10.727-10.862 5.933.097 9.92 4.038 9.94 10.045l.028 21.718-.01 26.23h22.593l.16-2.918c.02-.493.036-.988.036-1.483l-.004-28.7c.004-4.782.014-9.565.038-14.348.034-6.771 4.023-10.607 10.65-10.544 6.016.058 9.984 3.896 10.008 9.918l.03 14.22-.012 28.44-.002 75.238c-.002 7.274-3.637 11.157-10.366 11.127-6.63-.029-10.31-4.002-10.324-11.278l-.014-22.494.005-27.293Zm-85.748 55.139-4.89-.29-.01.136H171.2c-5.025.004-7.17 1.85-8.887 7.652-1.524 5.15-.265 9.703 3.351 12.127 5.344 3.583 16.526 2.812 21.113-1.617 3.205-3.093 4.353-6.88 3.107-11.297-1.238-4.39-4.502-6.046-8.635-6.498l-2.437-.213Zm5.427-60.828h-.015l.065-5.416c.018-1.805.007-3.608-.108-5.405-.356-5.505-3.753-8.614-8.964-8.579-5.14.038-8.583 3.252-8.753 8.783a343.18 343.18 0 0 0 .001 21.257c.173 5.51 3.649 8.753 8.766 8.79 5.304.035 8.69-3.255 8.976-8.995.087-1.735.094-3.474.08-5.214l-.048-5.22Zm14.919-20.733c3.978 4.384 4.686 9.454 4.574 14.732l-.03.992c-.056 1.46-.077 2.925-.087 4.393l-.024 4.404c-.036 3.667-.163 7.318-.775 10.887-2.186 12.764-12.57 20.92-25.515 21.037l-3.806.015-7.186-.01-.047.522-.285 1.886c-.148 1.124-.193 2.304.3 3.182.844 1.496 3.46 2.581 5.396 2.76 4.363.403 8.788.12 13.188.138 16.94.068 27.388 12.39 24.738 29.167-2.005 12.685-10.52 21.263-24.465 24.158-8.844 1.837-17.776 1.682-26.527-.66-15.84-4.24-21.79-21.418-11.56-33.298.865-1.005 1.868-1.893 2.945-2.78l2.235-1.811a55.07 55.07 0 0 0 1.156-.972c-5.182-3.633-7.37-8.708-6.848-14.96.51-6.1 3.78-10.534 8.89-14.22-8.01-7.909-9.027-17.783-8.484-28.11l.09-2.322.096-4.655c.066-3.103.193-6.196.713-9.221 1.965-11.436 11.106-19.046 22.589-20.21l1.05-.088c9.13-.605 18.218-1.863 27.324-2.831.771-.082 1.54-.2 2.313-.257 6.764-.5 9.582 1.431 10.233 7 .73 6.244-1.9 9.636-8.363 10.733-.448.076-.9.13-1.381.176l-2.447.223Zm253.84 36.78c0-9.176-.203-18.358.102-27.524.12-3.591-1.506-5.181-4.388-6.284-6.682-2.556-11.917.997-11.95 8.32-.076 16.8-.046 33.6.013 50.4.005 1.647.282 3.372.83 4.92 1.213 3.425 4.807 5.058 8.946 4.318 4.674-.837 6.442-2.749 6.445-7.012L453 88.238Zm.273 42.542c-4.037 5.425-8.91 8.756-15.458 8.929-12.28.324-20.821-7.54-20.939-19.851-.204-21.466-.154-42.934-.003-64.4.05-7.247 2.567-13.607 9.587-16.903 7.392-3.47 14.81-3.07 21.814 1.33.647.406 1.251.88 1.883 1.415l2.05 1.783c.253.218.517.441.794.67L453 10.698c.01-7.127 3.25-10.658 9.785-10.697 6.713-.039 10.124 3.546 10.128 10.823.02 37.76.01 75.521.01 113.283l.014 3.362c-.002.56-.009 1.12-.027 1.68-.168 5.266-2.894 8.907-7.21 9.697-5.465.998-9.488-1.066-11.685-6.012l-.136-.327-.608-1.727Zm-340.142.069c-5.077 8.498-12.863 10.101-21.596 8.399-8.622-1.681-14.294-8.792-14.392-18.682-.247-24.824-.142-49.653-.062-74.48.017-5.011 3.62-8.483 8.522-8.831 6.205-.442 10.188 2.284 11.116 7.715.177 1.041.218 2.111.228 3.178l.022 60.806c0 1.677.06 3.36.202 5.03.52 6.116 4.16 8.675 10.08 7.11 3.327-.88 5.179-2.523 5.147-6.497-.177-22.24-.104-44.48-.072-66.722.01-6.814 3.425-10.531 9.576-10.627 6.699-.106 10.321 3.412 10.327 10.175.02 26.896.01 53.792.007 80.688 0 6.47-2.073 9.804-6.644 10.714-6.164 1.227-9.956-1.12-12.46-7.976ZM336.7 78.08l.016-2.743.071-5.36c.043-3.524.043-6.963-.189-10.387-.296-4.369-3.172-6.535-7.195-6.517-3.779.017-6.974 2.235-7.24 6.141-.213 3.11-.241 6.233-.216 9.375l.08 6.312c.013 1.057.022 2.117.022 3.18h14.65Zm-14.856 15.86-.013 3.77-.048 7.331c-.015 3.611.001 7.155.124 10.695.17 4.901 3.163 7.611 7.554 7.59 4.474-.022 7.198-2.665 7.71-7.499.069-.64.066-1.29.085-1.934.193-6.545 3.252-9.643 9.473-9.588 6.143.054 9.275 3.336 9.348 9.793.175 15.466-9.74 25.594-25.26 25.572-3.714-.006-7.542-.207-11.121-1.103-10.537-2.636-17.138-10.207-17.542-22.301-.618-18.445-.693-36.956.158-55.387.872-18.858 15.332-26.724 32.942-23.982 13.123 2.043 20.873 11.46 21.325 25.087.16 4.801.174 9.608.137 14.416l-.114 9.614c-.07 5.248-2.97 7.902-8.372 7.92l-10.404.014-15.982-.007Zm68.04-46.846c1.667-7.462 6.03-10.493 13.063-9.863 5.56.496 8.297 3.905 8.155 10.522-.13 6.078-3.298 9.781-8.592 9.801-1.15.005-2.3-.144-3.45-.323l-2.298-.363c-4.353-.634-5.853.621-5.854 4.983-.003 22.362.023 44.725-.015 67.087-.013 7.71-6.645 12.165-13.896 9.444-4.232-1.589-6.007-4.67-6.01-10.61-.01-26.37-.01-52.74 0-79.11.001-6.627 2.27-9.915 7.234-10.588 6.675-.905 9.566 1.188 11.663 9.02Z"/>
  <path fill="#86BAD3" d="M512 126.831c-.05 7.24-5.051 12.135-12.288 12.03-6.926-.101-11.698-5.112-11.673-12.258.025-7.244 4.979-12.065 12.286-11.958 6.995.103 11.724 5.039 11.675 12.186"/>
</svg>
